!!!OTL: BIN I NET A LUSTGER SCHWEIZERBUA
!!!ARE: Europa, Mitteleuropa, Deutschland
!!!SCT: E1482
!!!YEM: Copyright 1995, estate of Helmut Schaffrath.
**kern
*ICvox
*Ivox
*M3/4
*k[f#]
*G:
{8d
8f#
=1
4.g
8d
8g
8b
=2
4.dd
8ee
4dd}
=3
{4a
4.dd
8cc
=4
8cc
8b
8a
8b
4g}
=5
{4.g
8d
8g
8b
=6
4.dd
8ee
4dd}
=7
{4.ee
8f#
4f#
=8
2g
4r}
=9
{4g
4f#
4e
=10
4f#
4dd
4a}
=11
{4.g
8f#
4e
=12
4f#
4dd
4a}
=13
{4.a
8g
4f#
=14
4.ff#
8ee
8dd}
{8a
=15
4.b
8a
8.gg
16cc#
=16
4dd
8r}
{8d
8e
8f#
=17
8g
8ee
4.dd
8f#
=18
8g
8ee
4.dd
8g}
=19
{8f#
8dd
4.cc
8f#
=20
4g
2gg}
=21
{8g
8ee
4.dd
8f#
=22
8g
8ee
2dd}
=23
{4.ee
8f#
4f#
=24
2g}
==
!!!AGN: Staende -, Hirten -, Alpen - Lied
!!!ONB: ESAC (Essen Associative Code) Database: ERK3
!!!AMT: simple triple
!!!AIN: vox
!!!EED: Helmut Schaffrath
!!!EEV: 1.0
*-
